P1
128 128
00000000000000000000000000000000000000000000000000000000000000000000000000000000000000000000000000000000000000000000000000000000
00000000000000000000000000000000000000000000000000000000000000000000000000000000000000000000000000000000000000000000000000000000
00000000000000000000000000000000000000000000000000000000000000000000000000000000000000000000000000000000000000000000000000000000
00000000000000000000000000000000000000000000000000000000000000000000000000000000000000000000000000000000000000000000000000000000
00000000000000000000000000000000000000000000000000000000000011111111000000000000000000000000000000000000000000000000000000000000
00000000000000000000000000000000000000000000000000000000000011111111000000000000000000000000000000000000000000000000000000000000
00000000000000000000000000000000000000000000000000000000000011111111000000000000000000000000000000000000000000000000000000000000
00000000000000000000000000000000000000000000000000000000000011111111000000000000000000000000000000000000000000000000000000000000
00000000000000000000000000000000000011111111000000000000000011111111000000000000000011111111000000000000000000000000000000000000
00000000000000000000000000000000000011111111000000000000000011111111000000000000000011111111000000000000000000000000000000000000
00000000000000000000000000000000000011111111000000000000000011111111000000000000000011111111000000000000000000000000000000000000
00000000000000000000000000000000000011111111000000000000000011111111000000000000000011111111000000000000000000000000000000000000
00000000000000000000000000000000000011111111000000000000000011111111000000000000000011111111000000000000000000000000000000000000
00000000000000000000000000000000000011111111000000000000000011111111000000000000000011111111000000000000000000000000000000000000
00000000000000000000000000000000000011111111000000000000000011111111000000000000000011111111000000000000000000000000000000000000
00000000000000000000000000000000000011111111000000000000000011111111000000000000000011111111000000000000000000000000000000000000
00000000000000000000000000000000000011111111000000000000000011111111000000000000000011111111000000000000000000000000000000000000
00000000000000000000000000000000000011111111000000000000000011111111000000000000000011111111000000000000000000000000000000000000
00000000000000000000000000000000001111111111111111111111111111111111111111111111111111111111110000000000000000000000000000000000
00000000000000000000000000000000001111111111111111111111111111111111111111111111111111111111110000000000000000000000000000000000
00000000000000000000000000000000001111111111111111111111111111111111111111111111111111111111110000000000000000000000000000000000
00000000000000000000000000000000001111111111111111111111111111111111111111111111111111111111110000000000000000000000000000000000
00000000000000000000000000000000001111111111111111111111111111111111111111111111111111111111110000000000000000000000000000000000
00000000000000000000000000000000001111111111111111111111111111111111111111111111111111111111110000000000000000000000000000000000
00000000000000000000000000000000000000000000000000000000000000000000000000000000000000000000000000000000000000000000000000000000
00000000000000000000000000000000000000000000000000000000000000000000000000000000000000000000000000000000000000000000000000000000
00000000000000000000000000000000000000000000000000000000000000000000000000000000000000000000000000000000000000000000000000000000
00000000000000000000000000000000000000000000000000000000000000000000000000000000000000000000000000000000000000000000000000000000
00000000000000000000000000000000000000000000000000000000000000000000000000000000000000000000000000000000000000000000000000000000
00000000000000000000000000000000000000000000000000000000000000000000000000000000000000000000000000000000000000000000000000000000
00000000000000000000000000000000000000000000000000000000000000000000000000000000000000000000000000000000000000000000000000000000
00000000000000000000000000000000000000000000000000000000000000000000000000000000000000000000000000000000000000000000000000000000
00000000000000000000000000000000000000000000000000000000000000000000000000000000000000000000000000000000000000000000000000000000
00000000000000000000000000000000000000000000000000000000000000000000000000000000000000000000000000000000000000000000000000000000
00000000000000000000000000000000000000000000000000000000000000000000000000000000000000000000000000000000000000000000000000000000
00000000000000000000000000000000000000000000000000000000000000000000000000000000000000000000000000000000000000000000000000000000
00000000000000000000000000000000000000000000000000000000000000000000000000000000000000000000000000000000000000000000000000000000
00000000000000000000000000000000000000000000000000000000000000000000000000000000000000000000000000000000000000000000000000000000
00000000000000000000000000000000000000000000000000000000000000000000000000000000000000000000000000000000000000000000000000000000
00000000000000000000000000000000000000000000000000000000000000000000000000000000000000000000000000000000000000000000000000000000
00000000000000000000000000000000000011110000111100000000000000000000000000001111000011110000000000000000000000000000000000000000
00000000000000000000000000000000000011110000111100000000000000000000000000001111000011110000000000000000000000000000000000000000
00000000000000000000000000000000000011110000111100000000000000000000000000001111000011110000000000000000000000000000000000000000
00000000000000000000000000000000000011110000111100000000000000000000000000001111000011110000000000000000000000000000000000000000
00000000000000000000000000000000000000001111000011110000000000000000000000000000111100001111000000000000000000000000000000000000
00000000000000000000000000000000000000001111000011111000000000000000000000000000111100001111100000000000000000000000000000000000
00000000000000000000000000000000000000001111000011111110000000000000000000000000111100001111111000000000000000000000000000000000
00000000000000000000000000000000000000001111000011111110000000000000000000000000111100001111111000000000000000000000000000000000
00000000000000000000000000000000000011110000111101111111000000000000000000001111000011110111111100000000000000000000000000000000
00000000000000000000000000000000000011110000111100111110000000000000000000001111000011110011111000000000000000000000000000000000
00000000000000000000000000000000000011110000111100111110000000000000000000001111000011110011111000000000000000000000000000000000
00000000000000000000000000000000000011110000111100001000000000000000000000001111000011110000100000000000000000000000000000000000
00000000000000000000000000000000000000001111000011110000000000000000000000000000111100001111000000000000000000000000000000000000
00000000000000000000000000000000000000001111000011110000000000000000000000000000111100001111000000000000000000000000000000000000
00000000000000000000000000000000000000001111000011110000000000000000000000000000111100001111000000000000000000000000000000000000
00000000000000000000000000000000000000001111000011110000000000000000000000000000111100001111000000000000000000000000000000000000
00000000000000000000000000000000000000000000000000000000000000000000000000000000000000000000000000000000000000000000000000000000
00000000000000000000000000000000000000000000000000000000000000000000000000000000000000000000000000000000000000000000000000000000
00000000000000000000000000000000000000000000000000000000000000000000000000000000000000000000000000000000000000000000000000000000
00000000000000000000000000000000000000000000000000000000000000000000000000000000000000000000000000000000000000000000000000000000
00000000000000000000000000000000000000000000000000000000000000000000000000000000000000000000000000000000000000000000000000000000
00000000000000000000000000000000000000000000000000000000000000000000000000000000000000000000000000000000000000000000000000000000
00000000000000000000000000000000000000000000000000000000000000000000000000000000000000000000000000000000000000000000000000000000
00000000000000000000000000000000000000000000000000000000000000000000000000000000000000000000000000000000000000000000000000000000
00000000000000000000000000000000000000000000000000000000000000000000000000000000000000000000000000000000000000000000000000000000
00000000000000000000000000000000000000000000000000000000000000000000000000000000000000000000000000000000000000000000000000000000
00000000000000000000000000000000000000000000000000000000000000000000000000000000000000000000000000000000000000000000000000000000
00000000000000000000000000000000000000000000000000000000000000000000000000000000000000000000000000000000000000000000000000000000
00000000000000000000000000000000000000000000000000000000000000000000000000000000000000000000000000000000000000000000000000000000
00000000000000000000000000000000000000000000000000000000000000000000000000000000000000000000000000000000000000000000000000000000
00000000000000000000000000000000000000000000000000000000000000000000000000000000000000000000000000000000000000000000000000000000
00000000000000000000000000000000000000000000000011110000000000000000000000001111000000000000000000000000000000000000000000000000
00000000000000000000000000000000000000000000000011110000000000000000000000001111000000000000000000000000000000000000000000000000
00000000000000000000000000000000000000000000000011110000000000000000000000001111000000000000000000000000000000000000000000000000
00000000000000000000000000000000000000000000000000001111111111111111111111110000000000000000000000000000000000000000000000000000
00000000000000000000000000000000000000000000000000001111111111111111111111110000000000000000000000000000000000000000000000000000
00000000000000000000000000000000000000000000000000001111111111111111111111110000000000000000000000000000000000000000000000000000
00000000000000000000000000000000000000000000000000000000000000000000000000000000000000000000000000000000000000000000000000000000
00000000000000000000000000000000000000000000000000000000000000000000000000000000000000000000000000000000000000000000000000000000
00000000000000000000000000000000000000000000000000000000000000000000000000000000000000000000000000000000000000000000000000000000
00000000000000000000000000000000000000000000000000000000000000000000000000000000000000000000000000000000000000000000000000000000
00000000000000000000000000000000000000000000000000000000000000000000000000000000000000000000000000000000000000000000000000000000
00000000000000000000000000000000000000000000000000000000000000000000000000000000000000000000000000000000000000000000000000000000
00000000000000000000000000000000000000000000000000000000000000000000000000000000000000000000000000000000000000000000000000000000
00000000000000000000000000000000000000000000000000000000000000000000000000000000000000000000000000000000000000000000000000000000
00000000000000000000000000000000000000000000000000000000000000000000000000000000000000000000000000000000000000000000000000000000
00000000000000000000000000000000000000000000000000000000000000000000000000000000000000000000000000000000000000000000000000000000
00000000000000000000000000000000000000000000000000000000000000000000000000000000000000000000000000000000000000000000000000000000
00000000000000000000000000000000000000000000000000000000000000000000000000000000000000000000000000000000000000000000000000000000
00000000000000000000000000000000000000000000000000000000000000000000000000000000000000000000000000000000000000000000000000000000
00000000000000000000000000000000000000000000000000000000000000000000000000000000000000000000000000000000000000000000000000000000
00000000000000000000000000000000000000000000000000000000000000000000000000000000000000000000000000000000000000000000000000000000
00000000000000000000000000000000000000000000000000000000000000000000000000000000000000000000000000000000000000000000000000000000
00000000000000000000000000000000000000000000000000000000000000000000000000000000000000000000000000000000000000000000000000000000
00000000000000000000000000000000000000000000000000000000000000000000000000000000000000000000000000000000000000000000000000000000
00000000000000000000000000000000000000000000000000000000000000000000000000000000000000000000000000000000000000000000000000000000
00000000000000000000000000000000000000000000000000000000000000000000000000000000000000000000000000000000000000000000000000000000
00000000000000000000000000000000000000000000000000000000000000000000000000000000000000000000000000000000000000000000000000000000
00000000000000000000000000000000000000000000000000000000000000000000000000000000000000000000000000000000000000000000000000000000
00000000000000000000000000000000000000000000000000000000000000000000000000000000000000000000000000000000000000000000000000000000
00000000000000000000000000000011111000000011111000000011111000000011111000000011111000000011111000000000000000000000000000000000
00000000000000000000000000000011111000000011111000000011111000000011111000000011111000000011111000000000000000000000000000000000
00000000000000000000000000000011111000000011111000000011111000000011111000000011111000000011111000000000000000000000000000000000
00000000000000000000000000000011111011111011111011111011111011111011111011111011111011111011111011111000000000000000000000000000
00000000000000000000000000000011111011111011111011111011111011111011111011111011111011111011111011111000000000000000000000000000
00000000000000000000000000000011111111111111111111111111111111111011111111111111111111111111111111111000000000000000000000000000
00000000000000000000000000000011111111111111111111111111111111111011111111111111111111111111111111111000000000000000000000000000
00000000000000000000000000000011111111111111111111111111111111111011111111111111111111111111111111111000000000000000000000000000
00000000000000000000000000000011111111111111111111111111111100000011111111111111111111111111111100000000000000000000000000000000
00000000000000000000000000000011111111111111111111111111111100000011111111111111111111111111111100000000000000000000000000000000
00000000000000000000000000000011111111111111111111111111111100000011111111111111111111111111111100000000000000000000000000000000
00000000000000000000000000000011111111111111111111111111111100000011111111111111111111111111111100000000000000000000000000000000
00000000000000000000000000000011111111111111111111111111111100000011111111111111111111111111111100000000000000000000000000000000
00000000000000000000000000000011111111111111111111111111111100000011111111111111111111111111111100000000000000000000000000000000
00000000000000000000000000000011111111111111111111111111111100000011111111111111111111111111111100000000000000000000000000000000
00000000000000000000000000000000000000000000000000000000000000000000000000000000000000000000000000000000000000000000000000000000
00000000000000000000000000000000000000000000000000000000000000000000000000000000000000000000000000000000000000000000000000000000
00000000000000000000000000000000000000000000000000000000000000000000000000000000000000000000000000000000000000000000000000000000
00000000000000000000000000000000000000000000000000000000000000000000000000000000000000000000000000000000000000000000000000000000
00000000000000000000000000000000000000000000000000000000000000000000000000000000000000000000000000000000000000000000000000000000
00000000000000000000000000000000000000000000000000000000000000000000000000000000000000000000000000000000000000000000000000000000
00000000000000000000000000000000000000000000000000000000000000000000000000000000000000000000000000000000000000000000000000000000
00000000000000000000000000000000000000000000000000000000000000000000000000000000000000000000000000000000000000000000000000000000
00000000000000000000000000000000000000000000000000000000000000000000000000000000000000000000000000000000000000000000000000000000
00000000000000000000000000000000000000000000000000000000000000000000000000000000000000000000000000000000000000000000000000000000
00000000000000000000000000000000000000000000000000000000000000000000000000000000000000000000000000000000000000000000000000000000
00000000000000000000000000000000000000000000000000000000000000000000000000000000000000000000000000000000000000000000000000000000
00000000000000000000000000000000000000000000000000000000000000000000000000000000000000000000000000000000000000000000000000000000
